X:274
T: WENN ICH IHN NUR HABE
N: B0751A
O: Europa, Mitteleuropa, Deutschland
R: religioes
M: 4/4
L: 1/8
K: Eb
 | B2B2e2dc | B2A2G4
G2c2B2=A2 | B2z2
B2cd | e2e2e2dc | B2A2G4
c2B2BAG2 | F2GFF4
d2cB=A2B2 | e4d2z2
e2dfe2B2 | c2B2BAG2 | F4E2z2

